X:1
T:Et io qual fui
T:Et io qual fui
T:Orlande de Lassus
C:Orlande de Lassus
%%score [ 1 2 [ 3 4 ] ]
L:1/8
Q:1/4=72
M:2/2
K:C
V:1 treble nm="Superius" snm="S"
V:2 treble nm="Altus" snm="A"
V:3 treble-8 nm="Tenor 1" snm="T 1"
V:4 treble-8 nm="Tenor 2" snm="T 2"
V:1
 z4 c4 | c2 c2 B2 B2 | c3 c A2 c2 | d2 e2 z2 c2 | BA Bc d2 e2 | f2 e4 d2 | d2 g3 f ed | %7
w: Et|io qual fui re-|stai sen- za la|vo- ce et|mi _ _ _ _ per-|dei nel mio|gra- di- * * *|
 cB A2 A2 d2- |"^#" d2 c2 d4 | z8 | z2 A4 G2- |"^b" G2 F2 B2 B2 | A8 | z GAB c2 B2 | z2 B4 c2- | %15
w: * * * to sta-|* * to||cad- dio|_ ven- tu- ra|mia|so- pra la ri- va,|e mor-|
 c2 B2 A2 A2 | B4 z2 d2 | c2 B2 c4 | B2 z d B2 c2 | A4 B2 B2 | c2 c2 c4 | c4 z2 A2 | d2 c2 FG AB | %23
w: * to cre- do'in|me, vi-|vo'in quel fo-|co, vi- vo'in quel|fo- co dir|vol sio nu-|me, e|sor- ri- s'el- * * *|
 cd ef ge d2 | e2 c2 B2 c2 | d8 | d4 z4 | z2 z g2 efc- | cd e2 c2 z d |"^b" B2 c A2 A G2 | %30
w: * * * * le e'l so-|le, chio dis- si'o|ne-|me,|e mi le- go'in|_ quell' her- be, e|mi le- go'in quell' her-|
 G d2 B2 c A2- | Ac _B2 A4- | A8 |] %33
w: be, e mi le- go'in|_ quell' her- be.|_|
V:2
 z4 G4 | A2 A2 G2 D2 | E2 G2 F2 E2 | G2 G2 z2 A2 | GF GE F2 G2 | A8 | _B4 G2 A2 | A3 G ^F2 G2 | %8
w: Et|io qual fui re-|stai sen- za la|vo- ce et|mi _ _ _ _ per|dei|nel mio gra-|di- * * to|
 A4 ^F4 | z2 A4 G2 | F2 E2 F2 D2- | D2 D2 D2 G2 | F2 D D2 C2 C | A,/B,/C/D/ E/F/ G2 F G2 | %14
w: sta- to|cad- dio|ven- tu- ra mia|_ so- pra la|ri- va, so- pra la|ri- * * * * * * * va,|
 z2 G2 G4 | G2 G4 F2 | D2 G2 E2 D2 | G2 GG F2 EF | G2 A3 G G2- |"^#" G2 F2 G2 G2 | E2 E2 G4 | %21
w: e mor-|to cre- do'in|me, vi- vo'in quel|fo- co, vi- vo'in quel fo-||* * co dir|vol sio nu-|
 A4 D3 D | FG AB c2 F2 | F2 ED C c2 B | c2 G2 G2 A2 | _B8 | A4 D2 EG | CcB>A G2 A2 | z G2 E2 FDF | %29
w: me, e sor-|ri- * * * s'el- la|e'l _ _ _ so- *|le, chio dis- si'o|ne-|me, e mi leg'|o'in quell' her- * * be,|e mi le- go'in quell'|
 G>F E2 FC C/B,/C/D/ | EDB,D EC z F | FE D2 D4- | D8 |] %33
w: her- * * be, e mi _ _ _|_ le- go'in quell' her- be, le-|go'in quell' her- be.|_|
V:3
 c4 e2 e2 | f4 d2 g2- | g2 e2 c3 c | B2 c2 z4 | z4 z2 c2 | cB cd e2 ^f2 | g2 d2 e2 A2 | e2 f2 d4 | %8
w: Et io qual|fui re- stai|_ sen- za la|vo- ce|e|mi _ _ _ _ per-|dei nel mio gra-|di- to sta-|
 e4 d2 a2- | a2 f2 e2 d2- | d2 c2 d2 _B2 | A2 A2 G4 | d2 f2 fe f2 | e2 z d ec d2 | G2 d2 e4- | %15
w: * to cad|_ dio ven- tu-|* ra mia so-|pra la ri-|va, so- pra la ri-|va, so- pra la ri-|va, e mort-|
 e2 d2 d2 d2 | G4 g4 | e2 d2 a4 | d2 d3 d e2 | d4 G2 G2 | g2 g2 e4 | f2 f3 f f2 | de fg a2 d2 | %23
w: * to cre- do'in|me, vi-|vo'in quel fo-|co, vi- vo'in quel|fo- co dir|vol sio nu-|me, e sor- ri-|s'el- * * * la e'l|
 AB cd ec g2 | c2 e2 d2 f2 | f4 g4 | ^f4 z g2 e | f e2 d e c2 c | ABcg a2 fd- | d e2 c cfe>d | %30
w: so- * * * * * *|le, chio dis- si'o|ne- *|me, e mi|leg' o'in quell' her- be, e|mi le- go'in quell' her- be, e|_ mi le- go'in quell' her- *|
 cB z g2 ecd- | dg g4 ^fe | ^f8 |] %33
w: * be, e mi le- go'in|_ quell' her- * *|be.|
V:4
 z4 C4 | F2 F2 G2 G2 | c2 C2 F2 A2 | G2 C2 z4 | z4 z2 C2 | FG AB ^c2 d2 | G2 G2 c4 | %7
w: Et|io qual fui re-|stai sen- za la|vo- ce|e|mi _ _ _ _ per|dei nel mio|
"^b" A2 d4 _B2 | A4 D4 |"^#" d4 c2 _B2 | A2 A2 D4- | D4 z4 | D4 A2 F2 | c3 B A2 G2 | z2 G2 E2 C2 | %15
w: gra- di- to|sta- to|cad- dio ven-|tu- ra mia|_|so- pra la|ri- * * va,|e mor- te|
 E2 G2 D4 | z2 d2 c2 B2 | c2 G2 z2 A2 | G2 ^F2 G2 C2 | z2 D2 d2 d2 | c8 | F4 z4 | z8 | z8 | %24
w: cre- do'in me,|vi- vo'in quel|fo- co, vi-|vo'in quel fo- co|dir vol sio|nu-|me,|||
 z2 c2 G2 F2 |"^b" B3 A G4 | D2 d2 B2 c2 | A2 G2 c2 F2 | z2 c2 A2 _B2 | G2 A2 F2 C2 | %30
w: ch'io dis- si'o|ne- * *|me, e mi leg'|o'in quell' her- be,|e mi le-|go'in quell her- be,|
 z2 G2 E2 FD- | DC G2 D4- | D8 |] %33
w: e mi le- go'in|_ quell' her- be.|_|

